src/icons/npm.svg

<svg xmlns="http://www.w3.org/2000/svg" width="32px" height="32px" viewBox="0 0 18 7">
	<path fill="#CB3837" d="M0,0v6h5v1h4v-1h9v-6"/>
	<path fill="#FFF" d="M1,1v4h2v-3h1v3h1v-4h1v5h2v-4h1v2h-1v1h2v-4h1v4h2v-3h1v3h1v-3h1v3h1v-4"/>
</svg>

<?xml version="1.0" encoding="utf-8"?>
<svg width="32px" height="32px" viewBox="0 0 18 7" xmlns="http://www.w3.org/2000/svg">
  <path fill="var(--icon-color-primary, #CB3837)" d="M 18 0 L 18 6 L 9 6 L 9 7 L 5 7 L 5 6 L 0 6 L 0 0 Z M 1 1 L 1 5 L 3 5 L 3 2 L 4 2 L 4 5 L 5 5 L 5 1 L 6 1 L 6 6 L 8 6 L 8 2 L 9 2 L 9 4 L 8 4 L 8 5 L 10 5 L 10 1 L 11 1 L 11 5 L 13 5 L 13 2 L 14 2 L 14 5 L 15 5 L 15 2 L 16 2 L 16 5 L 17 5 L 17 1 Z"/>
</svg>
